X: 40475
T: Tom's Iced Wine
R: slip jig
M: 9/8
K: Fmajor
|d2A A2G F2G|A2c c2A cfe|d2A A2G F2G|A2A AGF A^GA|
def f2e fef|efg g2f g2a|fff fed c=B_B|A^GA ^cde d3||

